X: 11974
T: English Dance From Bornholm
R: reel
M: 4/4
K: Dmajor
d2 fd c2BA|B2dB BAGF|G2BG F2 ED|CDEC A,3 A|
d2 fd c2BA|ABdB BAGF|FGBG F2 ED|1 CDEC D3A:|2 CDEC D4||
[M:3/4]|:F2G2A2|F2G2A2|E2G2F2|E4 D2|F2G2A2|F2G2A2|E2D2C2|D6:|

